Adwaita++/apps/16/system-file-manager.svg

<svg height="16" width="16" xmlns="http://www.w3.org/2000/svg">
  <path d="m3.187 0c-1.205 0-2.187 1.018-2.187 2.219v11.561c0 1.202.982 2.22 2.187 2.22h9.625c1.205 0 2.188-1.018 2.188-2.219v-11.561c0-1.202-.983-2.22-2.188-2.22zm-.187 3h10v11h-10zm1 1v4h8.031v-4zm2.344 1.438a.5.5 0 0 1 .062 0 .5.5 0 0 1 .594.5v.062h2v-.063a.5.5 0 1 1 1 0v.063c0 .545-.455 1-1 1h-2c-.546 0-1-.455-1-1v-.063a.5.5 0 0 1 .344-.5zm-2.314 3.562v4h8.031v-4zm2.313 1.438a.5.5 0 0 1 .062 0 .5.5 0 0 1 .594.5v.062h2v-.063a.5.5 0 1 1 1 0v.063c0 .545-.455 1-1 1h-1.999c-.546 0-1-.455-1-1v-.063a.5.5 0 0 1 .344-.5z" fill="#474747" fill-rule="evenodd"/>
</svg>

<svg xmlns="http://www.w3.org/2000/svg" width="16" height="16">
    <path d="M3.187 0C1.982 0 1 1.018 1 2.219V13.78C1 14.982 1.982 16 3.187 16h9.625C14.017 16 15 14.982 15 13.781V2.22C15 1.018 14.017 0 12.812 0zM3 3h10v11H3zm1 1v4h8.031V4zm2.344 1.438a.5.5 0 0 1 .062 0 .5.5 0 0 1 .594.5V6h2v-.063a.5.5 0 1 1 1 0V6c0 .545-.455 1-1 1H7c-.546 0-1-.455-1-1v-.063a.5.5 0 0 1 .344-.5zM4.03 9v4h8.031V9zm2.313 1.438a.5.5 0 0 1 .062 0 .5.5 0 0 1 .594.5V11h2v-.063a.5.5 0 1 1 1 0V11c0 .545-.455 1-1 1H7c-.546 0-1-.455-1-1v-.063a.5.5 0 0 1 .344-.5z" style="marker:none" color="#000" overflow="visible" fill="#474747" fill-rule="evenodd"/>
</svg>
